source/img/vacancies/vac-d__phone.svg

<svg width="18" height="19" viewBox="0 0 18 19" fill="none" xmlns="http://www.w3.org/2000/svg">
<path fill-rule="evenodd" clip-rule="evenodd" d="M1.96385 2.36044C1.45688 2.91676 1 3.84795 1 5.41323C1 8.94184 3.66459 11.6636 5.20711 13.2061C6.74962 14.7486 9.47139 17.4132 13 17.4132C14.5653 17.4132 15.4965 16.9564 16.0528 16.4494C16.5808 15.9683 16.8464 15.373 16.949 14.875L14.0938 12.7336L12.2168 14.6107C11.6124 15.215 10.6476 15.3931 9.85567 14.915C9.06269 14.4362 7.67928 13.5067 6.29289 12.1203C4.9065 10.734 3.97701 9.35054 3.49826 8.55757C3.02016 7.76568 3.19819 6.80083 3.80255 6.19647L5.67962 4.3194L3.53822 1.4642C3.04024 1.56679 2.44497 1.83248 1.96385 2.36044ZM3.50291 0.454393C2.09827 0.67742 0 1.86505 0 5.41323C0 9.41323 3 12.4132 4.5 13.9132C6 15.4132 9 18.4132 13 18.4132C16.5482 18.4132 17.7358 16.315 17.9588 14.9103C18.0082 14.5995 17.8518 14.3021 17.6 14.1132L14.6938 11.9336C14.2957 11.635 13.7386 11.6746 13.3867 12.0265L11.5097 13.9036C11.2053 14.2079 10.741 14.2814 10.3725 14.0589C9.62531 13.6078 8.31266 12.7259 7 11.4132C5.68734 10.1006 4.80545 8.78792 4.35433 8.04072C4.13186 7.67223 4.20529 7.20794 4.50965 6.90358L6.38673 5.0265C6.73862 4.67461 6.77821 4.11752 6.47962 3.7194L4.3 0.813235C4.11115 0.561429 3.81378 0.405035 3.50291 0.454393Z" fill="black"/>
</svg>

<svg width="18" height="19" fill="none" xmlns="http://www.w3.org/2000/svg"><path fill-rule="evenodd" clip-rule="evenodd" d="M1.964 2.36C1.457 2.917 1 3.848 1 5.413c0 3.529 2.665 6.25 4.207 7.793C6.75 14.75 9.471 17.413 13 17.413c1.565 0 2.496-.457 3.053-.964a2.946 2.946 0 00.896-1.574l-2.855-2.141-1.877 1.877c-.605.604-1.57.782-2.361.304a19.148 19.148 0 01-3.563-2.795 19.142 19.142 0 01-2.795-3.562c-.478-.792-.3-1.757.305-2.362L5.68 4.32 3.538 1.464a2.947 2.947 0 00-1.574.896zM3.503.454C2.098.677 0 1.865 0 5.414c0 4 3 7 4.5 8.5s4.5 4.5 8.5 4.5c3.548 0 4.736-2.099 4.959-3.504.05-.31-.107-.608-.359-.797l-2.906-2.18a1 1 0 00-1.307.094l-1.877 1.877a.927.927 0 01-1.137.155A18.144 18.144 0 017 11.413a18.144 18.144 0 01-2.646-3.372.927.927 0 01.156-1.137l1.877-1.877a1 1 0 00.093-1.308L4.3.813C4.111.561 3.814.405 3.503.454z" fill="#000"/></svg>
